X:1
T:My Petition
T:My Petition
T:Arranged from Franz Wilhelm Abt (1819-1885)
T:Clara Elizabeth Choate, 1896, alt.
T:Public Domain Courtesy of the Cyber Hymnal™
T:Public Domain Courtesy of the Cyber Hymnal™
C:Arranged from Franz Wilhelm Abt (1819-1885)
Z:Public Domain
Z:Courtesy of the Cyber Hymnal™
%%score ( 1 2 ) ( 3 4 )
L:1/8
Q:1/4=82
M:3/8
K:G
V:1 treble 
V:2 treble 
V:3 bass 
V:4 bass 
V:1
 [GB]2 [Ac] | [Bd]2 [GB] | [EG]2 [DA] | [DB]2 [DG] |!<(! [FA]2!<)! [FB] | G2 [GB] | (ed)[GB] | %7
w: 1.~Lift me|up, oh,|heav’n- ly|Fa- ther,|Till I|feel Thy|strength * sub-|
w: 2.~Wake with-|in my|heart, oh,|Giv- er|Of di-|vin- est|good * and|
w: 3.~Fill my|soul with|rev- e-|la- tion,|Yet a-|wait- ing|hu- * man|
 [FA]3 | [DB]2 [Dc] | [Dd]2 [DB] | [EG]2 [DA] | [Dc]2 [DB] |!<(! [DA]2!<)! [DA] | ([FA][Af])[Fd] | %14
w: lime;|Let Thy|Spir- it|be my|spir- it,|Let me|have * no|
w: gain,|A re-|sponse for-|ev- er|quick- ’ning|In- to|ac- * tion,|
w: kind;|Teach me|of Thy|bound- less|lov- ing,|How the|Christ * all|
 [FA]2!>(! [EG]!>)! | (G2 F)!<(! (EG)!<)![GB] | [Fd]2 [DF] | F2 [CE] | D3 | [Bd]2 [Ac] | %20
w: will but|Thine, * Let * me|have no|will but|Thine.|Bring in-|
w: love’s re-|frain, * In- * to|ac- tion,|love’s re-|frain.|O- pen|
w: men may|find, * How * the|Christ all|men may|find.|Breathe thro’|
 [GB]2 [GB] | [GB]2 [DA] | [DA]2 [DG] | [FA]2 [FB] | G2 [GB] | (ed)[GB] | [FA]3 | [DB]2 [Dc] | %28
w: to my|life, oh,|Fa- ther,|Just the|mu- sic|of * Thy|soul;|Make the|
w: wide Thy|hid- den|trea- sure,|Price- less|more than|pearl * of|sea;|Meet my|
w: me Thine|own per-|fec- tion,|Till my|heart no|more * shall|see|Aught but|
 [Dd]2 [DB] | [EG]2 [DA] | [Dc]2 [DB] | [EA]2 [Ge] | [Gd]2 [GB] | [GB]2 [FA] | G3 | (Ac)[Ge] | %36
w: ra- diance|of Thy|pow- er|All my|words and|deeds con-|trol,|All * my|
w: ear- nest,,|soul- ful|long- ing|For Thy|truth, earth’s|mys- te-|ry,|For * Thy|
w: Thy di-|vine ex-|press- ion|Of love’s|grand e-|ter- ni-|ty,|Of * love’s|
 (ed)[GB] | B2 [DA] | [DG]3 |] x3 |] %40
w: words * and|deeds con-|trol.||
w: truth, * earth’s|mys- te-|ry.||
w: grand * e-|ter- ni-|ty.||
V:2
 x3 | x3 | x3 | x3 | x3 | G2 x | G2 x | x3 | x3 | x3 | x3 | x3 | x3 | x3 | x3 | D3 E2 x | x3 | %17
 (D!>(!B,) x!>)! | D3 | x3 | x3 | x3 | x3 | x3 | G2 x | G2 x | x3 | x3 | x3 | x3 | x3 | x3 | x3 | %33
 x3 | G3 | E2 x | G2 x | (GD) x | x3 |] x3 |] %40
V:3
 [G,D]2 [G,D] | [G,D]2 [G,D] | [G,C]2 [G,C] | [G,B,]2 [G,B,] | [D,C]2 [D,D] | [G,B,]2 G, | %6
 (CB,)[G,D] | [D,D]3 | G,2 [G,A,] | [G,B,]2 G, | [C,G,]2 [A,,F,] | [G,,A,]2 [G,,G,] | %12
 [A,,F,]2 [A,,F,] | [A,,A,]2 [A,,A,] | (A,D)[^A,,C] | [B,,D]3 x3 | [G,,B,]2 [G,,B,] | A,2 [D,A,] | %18
 [A,,A,]2 [A,,G,] | [D,F,]3 | [G,,D]2 [G,,D] | [G,,D]2 [B,,D] | [D,D]2 [D,C] | [G,,C]2 [G,,B,] | %24
 [D,C]2 [D,D] | [G,B,]2 G, | (CB,)[G,D] | [D,D]3 | G,2 [G,A,] | [G,B,]2 G, | [C,G,]2 [A,,F,] | %31
 [G,,A,]2 [G,,G,] | [C,E]2 [C,C] | [D,B,]2 [D,D] | [D,D]2 [^D,C] | [E,B,]3 | [C,C]2 [C,C] | %37
 [D,B,]2 [D,D] | [D,D]2 [D,C] |] [G,,B,]3 |] %40
V:4
 x3 | x3 | x3 | x3 | x3 | x2 G, | G,2 x | x3 | G,2 x | x2 G, | x3 | x3 | x3 | x3 | ^A,,2 x | x6 | %16
 x3 | (A,,F,) x | x3 | x3 | x3 | x3 | x3 | x3 | x3 | x2 G, | G,2 x | x3 | G,2 x | x2 G, | x3 | x3 | %32
 x3 | x3 | x3 | x3 | x3 | x3 | x3 |] x3 |] %40

